!!!OTL: Wesoly nam w.n. ten tho dzien - II
**kern
*staff1
=1-
*clefC1
*k[]
*M3/1
0a
1b
=2
0cc
1b
=3
0a
1b
=4
0cc
1b
=5
1.cc
2dd\
1ee
=6
0dd
1cc
=7
0b
1a
=8||
!!linebreak:original
0ee
1dd
=9
0ee
1ff#
=10
0gg
1ff
=11
0ee
1dd
=12
0cc
1ee
=13
0dd
1cc
=14
0.b
=15
0.a
==
*-
!!title: @{OTL}, @{GTL}, ed. @{ENC}
!!!pag:
!!!GTL: Hymnbook D
!!!EFL: 
!!!YEM: Creative Commons CC/BY/NC/SA 4.0
!!!ENC: Marcin Konik
!!!END: 2015-0m-dd
!!!EED: Marcin Konik
!!!EEV: 
!!!ONB: Encoded in vim by Marcin Konik
!!!CharacterEncoding: utf-8
!!!RDF**kern: l=long note in original notation
!!!RDF**kern: i=editorial accidental
!!muse2ps: z14jc180F
!!!COM: Anonim
!!!CDT: [?]
!!!TXO: Polish
!!!ODT: 
!!!GTL: Hymnbook D
!!!ARL: Opactwo św. Wojciecha, Staniątki 
!!!voices:	1
